src/components/crossDevice/MobileLink/assets/complete-tick-small.svg

<?xml version="1.0" encoding="UTF-8" standalone="no"?>
<svg width="24px" height="24px" viewBox="0 0 24 24" version="1.1" xmlns="http://www.w3.org/2000/svg" xmlns:xlink="http://www.w3.org/1999/xlink">
    <!-- Generator: Sketch 46.2 (44496) - http://www.bohemiancoding.com/sketch -->
    <title>complete-tick-small</title>
    <desc>Created with Sketch.</desc>
    <defs></defs>
    <g id="Symbols" stroke="none" stroke-width="1" fill="none" fill-rule="evenodd">
        <g id="icons/complete-tick/small" transform="translate(-4.000000, -4.000000)">
            <g id="complete-tick-small" transform="translate(4.000000, 4.000000)">
                <circle id="Oval" fill="#00C8A0" cx="12" cy="12" r="12"></circle>
                <path d="M16.1670887,7.51711209 L10.299503,13.743607 L8.83291133,12.1869833 C8.18475016,11.5017304 7.13387568,11.5017304 6.48612088,12.1869833 C5.83795971,12.8764661 5.83795971,13.9931744 6.48612088,14.6784272 L9.12631094,17.4828879 C9.77447211,18.1723707 10.8249402,18.1723707 11.4731014,17.4828879 L18.5138791,10.008556 C19.1620403,9.31907326 19.1620403,8.20236493 18.5138791,7.51711209 C17.8657179,6.8276293 16.8152498,6.8276293 16.1670887,7.51711209 Z" id="checkmark" fill="#FFFFFF"></path>
            </g>
        </g>
    </g>
</svg>

<svg width="24" height="24" viewBox="0 0 24 24" xmlns="http://www.w3.org/2000/svg">
  <title>
    complete-tick-small
  </title>
  <g fill="none" fill-rule="evenodd">
    <circle fill="#00C8A0" cx="12" cy="12" r="12"/>
    <path d="M16.167 7.517L10.3 13.744l-1.467-1.557c-.648-.685-1.7-.685-2.347 0-.648.69-.648 1.806 0 2.49l2.64 2.806c.648.69 1.7.69 2.347 0l7.04-7.474c.65-.69.65-1.808 0-2.493-.647-.69-1.698-.69-2.346 0z" fill="#FFF"/>
  </g>
</svg>
